packages/nouns-webapp/src/assets/icons/trophy.svg

<svg
                    width="18"
                    height="18"
                    viewBox="0 0 18 18"
                    fill="none"
                    xmlns="http://www.w3.org/2000/svg"
                  >
                    <path
                      d="M9.98589 12.3197C9.67011 12.3501 9.34673 12.3653 9.01924 12.3653C8.69172 12.3653 8.36833 12.3501 8.05258 12.3197C7.96728 12.3115 7.8912 12.3506 7.8912 12.4038V13.4778H7.87567C7.25269 13.4778 6.74763 13.9807 6.74763 14.601H11.2598C11.2598 13.986 10.7629 13.4878 10.1473 13.4793V12.4038C10.1473 12.3506 10.0712 12.3115 9.98589 12.3197Z"
                      fill="#FFC110"
                    />
                    <path
                      d="M12.3878 15.7535H5.61956C5.30806 15.7535 5.05554 16.005 5.05554 16.3151V17.4384C5.05554 17.7486 5.30806 18 5.61956 18H12.3878C12.6993 18 12.9518 17.7486 12.9518 17.4384V16.3151C12.9518 16.005 12.6993 15.7535 12.3878 15.7535Z"
                      fill="#FFC110"
                    />
                    <path
                      d="M16.59 0.294942C15.6287 -0.185334 14.5688 0.00391556 13.8306 0.601463H4.19539C3.45618 -0.0135621 2.38302 -0.214645 1.40993 0.271534C-0.290447 1.12897 -0.493668 3.45016 1.02334 4.58296L3.97934 6.78629C4.26342 9.30984 6.41116 11.2723 9.02136 11.2723C11.6349 11.2723 13.7852 9.30494 14.0649 6.77669L16.9766 4.60637C18.4943 3.47294 18.2897 1.15196 16.59 0.294942ZM3.91982 5.26997L1.73707 3.63543C0.917117 3.03242 1.03777 1.7896 1.94524 1.33163C2.85722 0.877416 3.91982 1.53829 3.91982 2.54568V5.26997ZM16.2629 3.6588L14.0975 5.28032V2.40428C14.202 1.51628 15.1741 0.916656 16.0547 1.35501C16.9634 1.81366 17.0819 3.05659 16.2629 3.6588Z"
                      fill="#FFC110"
                    />
                  </svg>

<svg xmlns="http://www.w3.org/2000/svg" width="18" height="18" fill="none">
    <path fill="#FFC110" d="M9.986 12.32a10 10 0 0 1-1.933 0c-.086-.008-.162.03-.162.084v1.074h-.015c-.623 0-1.128.503-1.128 1.123h4.512c0-.615-.497-1.113-1.113-1.122v-1.075c0-.053-.076-.092-.161-.084m2.402 3.434H5.62a.563.563 0 0 0-.564.561v1.123c0 .31.252.562.564.562h6.768a.563.563 0 0 0 .564-.562v-1.123a.563.563 0 0 0-.564-.562M16.59.295A2.55 2.55 0 0 0 13.83.6H4.196A2.55 2.55 0 0 0 1.41.271c-1.7.858-1.904 3.18-.387 4.312L3.98 6.786a5.07 5.07 0 0 0 5.042 4.486 5.07 5.07 0 0 0 5.044-4.495l2.912-2.17c1.517-1.134 1.313-3.455-.387-4.312M3.92 5.27 1.737 3.635c-.82-.603-.7-1.845.208-2.303A1.363 1.363 0 0 1 3.92 2.546zm12.343-1.611L14.097 5.28V2.404c.105-.888 1.077-1.487 1.958-1.049.908.459 1.027 1.702.208 2.304"/>
</svg>
